img/logo-superguided.svg

<svg fill="none" height="51" viewBox="0 0 50 51" width="50" xmlns="http://www.w3.org/2000/svg"><path clip-rule="evenodd" d="m25 50.5996c13.8071 0 25-11.1929 25-25s-11.1929-24.999991-25-24.999991-25 11.192891-25 24.999991 11.1929 25 25 25zm-12.0629-19.2537c-.4951.9926-1.1251 2.0641-1.8902 3.2146 2.0702 1.0603 4.3992 1.8724 6.9871 2.4363 2.5878.5414 5.1306.8121 7.6284.8121 4.658 0 8.1347-.688 10.4299-2.0641 2.2953-1.3986 3.4429-3.677 3.4429-6.8352 0-2.2559-1.0801-3.9252-3.2403-5.008-2.1603-1.1054-5.6257-1.6581-10.3963-1.6581-1.9352 0-3.4204-.1579-4.4555-.4737-1.0126-.3384-1.5189-.7783-1.5189-1.3197s.3713-.9474 1.1139-1.2181c.7425-.2933 2.1827-.4399 4.3205-.4399 1.7777 0 3.8254.3158 6.1432.9474 2.3178.6091 4.0505 1.3761 5.1981 2.301.09-.2256.2025-.564.3376-1.0151.72-2.1431 1.4064-3.9591 2.0589-5.4479-1.9802-1.0377-4.208-1.8498-6.6832-2.4363-2.4528-.6091-4.8494-.9137-7.1896-.9137-4.028 0-7.3022.7219-9.8225 2.1657-2.5203 1.4437-3.7804 3.6883-3.7804 6.7337 0 2.143 1.0351 3.6996 3.1054 4.6696 2.0702.9475 5.4006 1.4212 9.9911 1.4212 4.1855 0 6.2783.688 6.2783 2.0641 0 .3835-.3826.7444-1.1477 1.0828-.765.3158-2.0814.4737-3.9492.4737-1.8227 0-3.7917-.2594-5.9069-.7782-2.1153-.5189-3.9717-1.2407-5.5694-2.1656-.4726 1.3083-.9676 2.4588-1.4852 3.4514z" fill="#9e86ff" fill-rule="evenodd"/></svg>

<svg width="50" height="51" viewBox="0 0 50 51" fill="none" xmlns="http://www.w3.org/2000/svg">
<path fill-rule="evenodd" clip-rule="evenodd" d="M25 50.5996C38.8071 50.5996 50 39.4067 50 25.5996C50 11.7925 38.8071 0.599609 25 0.599609C11.1929 0.599609 0 11.7925 0 25.5996C0 39.4067 11.1929 50.5996 25 50.5996ZM12.9371 31.3459C12.442 32.3385 11.812 33.41 11.0469 34.5605C13.1171 35.6208 15.4461 36.4329 18.034 36.9968C20.6218 37.5382 23.1646 37.8089 25.6624 37.8089C30.3204 37.8089 33.7971 37.1209 36.0923 35.7448C38.3876 34.3462 39.5352 32.0678 39.5352 28.9096C39.5352 26.6537 38.4551 24.9844 36.2949 23.9016C34.1346 22.7962 30.6692 22.2435 25.8986 22.2435C23.9634 22.2435 22.4782 22.0856 21.4431 21.7698C20.4305 21.4314 19.9242 20.9915 19.9242 20.4501C19.9242 19.9087 20.2955 19.5027 21.0381 19.232C21.7806 18.9387 23.2208 18.7921 25.3586 18.7921C27.1363 18.7921 29.184 19.1079 31.5018 19.7395C33.8196 20.3486 35.5523 21.1156 36.6999 22.0405C36.7899 21.8149 36.9024 21.4765 37.0375 21.0254C37.7575 18.8823 38.4439 17.0663 39.0964 15.5775C37.1162 14.5398 34.8884 13.7277 32.4132 13.1412C29.9604 12.5321 27.5638 12.2275 25.2236 12.2275C21.1956 12.2275 17.9214 12.9494 15.4011 14.3932C12.8808 15.8369 11.6207 18.0815 11.6207 21.1269C11.6207 23.2699 12.6558 24.8265 14.7261 25.7965C16.7963 26.744 20.1267 27.2177 24.7172 27.2177C28.9027 27.2177 30.9955 27.9057 30.9955 29.2818C30.9955 29.6653 30.6129 30.0262 29.8478 30.3646C29.0828 30.6804 27.7664 30.8383 25.8986 30.8383C24.0759 30.8383 22.1069 30.5789 19.9917 30.0601C17.8764 29.5412 16.02 28.8194 14.4223 27.8945C13.9497 29.2028 13.4547 30.3533 12.9371 31.3459Z" fill="#9E86FF"/>
</svg>
